my_site/img/getintouch/plane.svg

<svg width="73" height="72" viewBox="0 0 73 72" fill="none" xmlns="http://www.w3.org/2000/svg">
<g clip-path="url(#clip0)">
<path d="M70.3484 2.16199C69.9592 1.75903 69.4674 1.48003 68.9308 1.35781C68.3943 1.23558 67.8354 1.27521 67.3198 1.47202L3.8615 25.4708C3.31422 25.6867 2.84305 26.0706 2.51056 26.5716C2.17807 27.0726 2 27.6669 2 28.2756C2 28.8844 2.17807 29.4787 2.51056 29.9797C2.84305 30.4807 3.31422 30.8646 3.8615 31.0805L31.5524 42.5999L42.6287 71.3984C42.8368 71.9426 43.1935 72.4115 43.6549 72.7473C44.1162 73.0832 44.6619 73.2712 45.2248 73.2883C45.8077 73.2759 46.3733 73.08 46.847 72.7266C47.3207 72.3732 47.6804 71.8787 47.8785 71.3084L70.9542 5.31183C71.1507 4.78108 71.1981 4.20317 71.0909 3.64548C70.9836 3.08779 70.7261 2.5733 70.3484 2.16199ZM45.2248 61.8889L37.1771 40.89L50.9937 26.5207L46.9266 22.291L32.9946 36.7802L12.9187 28.2906L63.4834 9.30162L45.2248 61.8889Z" fill="#0D5C63"/>
</g>
<defs>
<clipPath id="clip0">
<rect width="72" height="72" fill="white" transform="translate(0.5)"/>
</clipPath>
</defs>
</svg>

<svg width="73" height="72" fill="none" xmlns="http://www.w3.org/2000/svg"><g clip-path="url(#clip0)"><path d="M70.348 2.162a2.853 2.853 0 00-1.417-.804 2.78 2.78 0 00-1.611.114L3.862 25.471c-.548.216-1.019.6-1.351 1.1A3.084 3.084 0 002 28.277c0 .608.178 1.203.51 1.704.333.5.804.885 1.352 1.1l27.69 11.52L42.63 71.398a2.983 2.983 0 001.026 1.35 2.81 2.81 0 001.57.54 2.811 2.811 0 001.622-.561 2.99 2.99 0 001.032-1.419L70.954 5.312c.197-.53.244-1.109.137-1.667a3.043 3.043 0 00-.743-1.483zM45.225 61.889L37.177 40.89l13.817-14.37-4.067-4.229-13.932 14.49-20.076-8.49L63.483 9.3 45.225 61.89z" fill="#0D5C63"/></g><defs><clipPath id="clip0"><path fill="#fff" transform="translate(.5)" d="M0 0h72v72H0z"/></clipPath></defs></svg>
